src/components/00-materials/images-raw/Legal Services.svg

<svg width="96" height="96" viewBox="0 0 96 96" fill="none" xmlns="http://www.w3.org/2000/svg">
<path d="M48 24.5001C51.2254 24.5001 53.84 21.8854 53.84 18.6601C53.84 15.4347 51.2254 12.8201 48 12.8201C44.7747 12.8201 42.16 15.4347 42.16 18.6601C42.16 21.8854 44.7747 24.5001 48 24.5001Z" stroke="#00008F" stroke-width="2" stroke-linecap="round" stroke-linejoin="round"/>
<path d="M18.85 43.8101L28.59 23.1101L37.11 43.8101M72.17 78.4901H53C53.6304 77.7075 54.0686 76.7881 54.2794 75.8056C54.4903 74.8231 54.4679 73.8049 54.2142 72.8326C53.9604 71.8603 53.4823 70.961 52.8182 70.2069C52.1541 69.4527 51.3224 68.8647 50.39 68.4901V26.9201C50.3875 26.2851 50.1355 25.6767 49.6884 25.2258C49.2413 24.775 48.6349 24.5179 48 24.5101C47.3609 24.5101 46.7479 24.764 46.2959 25.2159C45.8439 25.6679 45.59 26.2809 45.59 26.9201V68.4901C44.6576 68.8647 43.826 69.4527 43.1619 70.2069C42.4978 70.961 42.0197 71.8603 41.7659 72.8326C41.5121 73.8049 41.4898 74.8231 41.7006 75.8056C41.9115 76.7881 42.3497 77.7075 42.98 78.4901H23.83C23.2164 78.5296 22.6408 78.8012 22.2202 79.2498C21.7996 79.6983 21.5655 80.2902 21.5655 80.9051C21.5655 81.52 21.7996 82.1118 22.2202 82.5604C22.6408 83.0089 23.2164 83.2806 23.83 83.3201H72.17C72.5002 83.3413 72.8313 83.2946 73.1428 83.1829C73.4542 83.0712 73.7395 82.8967 73.9808 82.6704C74.2222 82.444 74.4146 82.1706 74.5461 81.867C74.6777 81.5633 74.7455 81.236 74.7455 80.9051C74.7455 80.5742 74.6777 80.2468 74.5461 79.9432C74.4146 79.6395 74.2222 79.3661 73.9808 79.1398C73.7395 78.9134 73.4542 78.739 73.1428 78.6272C72.8313 78.5155 72.5002 78.4688 72.17 78.4901V78.4901ZM23.03 24.1101L41.58 20.0601L23.03 24.1101ZM54.43 17.2601L73.23 12.8201L54.43 17.2601Z" stroke="#00008F" stroke-width="2" stroke-linecap="round" stroke-linejoin="round"/>
<path d="M58.85 34.9901L68.59 14.3L77.11 34.9901M38.93 45C39.0511 46.5136 38.8574 48.0359 38.3613 49.471C37.8651 50.9061 37.0773 52.2229 36.0473 53.3386C35.0172 54.4543 33.7674 55.3446 32.3764 55.9535C30.9854 56.5625 29.4835 56.8768 27.965 56.8768C26.4466 56.8768 24.9446 56.5625 23.5536 55.9535C22.1627 55.3446 20.9128 54.4543 19.8828 53.3386C18.8528 52.2229 18.0649 50.9061 17.5688 49.471C17.0726 48.0359 16.879 46.5136 17 45H38.93ZM78.93 36.21C79.0681 37.7321 78.8875 39.2663 78.3998 40.7147C77.912 42.1631 77.1277 43.494 76.097 44.6225C75.0663 45.7509 73.8118 46.6522 72.4133 47.2689C71.0149 47.8855 69.5034 48.204 67.975 48.204C66.4467 48.204 64.9351 47.8855 63.5367 47.2689C62.1383 46.6522 60.8837 45.7509 59.853 44.6225C58.8223 43.494 58.0381 42.1631 57.5503 40.7147C57.0625 39.2663 56.8819 37.7321 57.02 36.21H78.93Z" stroke="#00008F" stroke-width="2" stroke-linecap="round" stroke-linejoin="round"/>
</svg>

<svg width="96" height="96" viewBox="0 0 96 96" fill="none" xmlns="http://www.w3.org/2000/svg"><path d="M48 24.5a5.84 5.84 0 100-11.68 5.84 5.84 0 000 11.68zM18.85 43.81l9.74-20.7 8.52 20.7m35.06 34.68H53a6.43 6.43 0 00-2.61-10V26.92A2.42 2.42 0 0048 24.51a2.41 2.41 0 00-2.41 2.41v41.57a6.428 6.428 0 00-2.61 10H23.83a2.42 2.42 0 000 4.83h48.34a2.422 2.422 0 002.576-2.415 2.419 2.419 0 00-2.576-2.415v0zM23.03 24.11l18.55-4.05-18.55 4.05zm31.4-6.85l18.8-4.44-18.8 4.44z" stroke="#00008F" stroke-width="2" stroke-linecap="round" stroke-linejoin="round"/><path d="M58.85 34.99l9.74-20.69 8.52 20.69M38.93 45A11 11 0 1117 45h21.93zm40-8.79a11.001 11.001 0 01-19.077 8.413 11.001 11.001 0 01-2.833-8.413h21.91z" stroke="#00008F" stroke-width="2" stroke-linecap="round" stroke-linejoin="round"/></svg>
